icons/trending-up.svg

<svg width="24" height="24" viewBox="0 0 24 24" fill="none" xmlns="http://www.w3.org/2000/svg">
<path fill-rule="evenodd" clip-rule="evenodd" d="M14 8C13.4477 8 13 7.55228 13 7C13 6.44772 13.4477 6 14 6H21C21.5523 6 22 6.44772 22 7V14C22 14.5523 21.5523 15 21 15C20.4477 15 20 14.5523 20 14V9.41421L13.7071 15.7071C13.3166 16.0976 12.6834 16.0976 12.2929 15.7071L9 12.4142L3.70711 17.7071C3.31658 18.0976 2.68342 18.0976 2.29289 17.7071C1.90237 17.3166 1.90237 16.6834 2.29289 16.2929L8.29289 10.2929C8.68342 9.90237 9.31658 9.90237 9.70711 10.2929L13 13.5858L18.5858 8H14Z" fill="black"/>
</svg>

<svg
  width="24"
  height="24"
  viewBox="0 0 24 24"
  xmlns="http://www.w3.org/2000/svg"
>
  <path
    fill-rule="evenodd"
    clip-rule="evenodd"
    d="M14 8a1 1 0 1 1 0-2h7a1 1 0 0 1 1 1v7a1 1 0 1 1-2 0V9.414l-6.293 6.293a1 1 0 0 1-1.414 0L9 12.414l-5.293 5.293a1 1 0 0 1-1.414-1.414l6-6a1 1 0 0 1 1.414 0L13 13.586 18.586 8H14z"
  />
</svg>
